!!!COM: Bach, Johann Sebastian
!!!CDT: 1685/3//-1750/7/28/
!!!OTL@@DE: Freu' dich sehr, O meine Seele
!!!OTL@EN:  Rejoice greatly, O my soul
!!!OPR@@DE: Cantata: Brich dem Hungrigen dein Brot, BWV 39
!!!ONB: Chorale is at the conclusion to Part II of the Cantata
!!!AGN: 4-Part Chorale
!!!SCT: BH 067
!!!SCT: BWV 39
!!!ONB: Harmony and Root analysis done manually by Craig Sapp (not yet proofed)
**harm	**root	**kern	**kern	**kern	**kern
!	!	!bass	!tenor	!alto	!sprno
*	*Iorgan	*Iorgan	*Iorgan	*Iorgan	*Iorgan
*	*	*clefF4	*clefF4	*clefG2	*clefG2
*k[f#c#]	*k[f#c#]	*k[f#c#]	*k[f#c#]	*k[f#c#]	*k[f#c#]
*D:	*D:	*D:	*D:	*D:	*D:
*M4/4	*M4/4	*M4/4	*M4/4	*M4/4	*M4/4
*met(c)	*met(c)	*met(c)	*met(c)	*met(c)	*met(c)
*MM60	*MM60	*MM60	*MM60	*MM60	*MM60
*>[A,A,B]	*>[A,A,B]	*>[A,A,B]	*>[A,A,B]	*>[A,A,B]	*>[A,A,B]
*>A	*>A	*>A	*>A	*>A	*>A
I	4GG	4D	4F#	4A	4d
Vb	4DD	4C#	4E	4A	4e
I	4GG	4D	4D	4A	4f#
V	4DD	4AA	4C#	4A	4e
=2	=2	=2	=2	=2	=2
vi7	8EE	4BB	4D	8A	4d
viio7b/V	8CC#	.	.	8G#	.
V	4DD	8C#	4E	4A	4c#
.	.	8D	.	.	.
ii	8AA	8E	8E	4G#	4B
ii7	8AA	8EE	8D	.	.
V;	4DD;	4AA;	4C#;	4E;	4A;
=3	=3	=3	=3	=3	=3
vi	4EE	4BB	4F#	4B	4d
Vb	4DD	4C#	4E	4A	4e
I	4GG	4D	8D	4A	4f#
.	.	.	8C#	.	.
IVb	4CC	4BB	4D	4G	4g
=4	=4	=4	=4	=4	=4
Ic	4GG	8AA	4D	4A	4f#
.	.	8GG	.	.	.
V	4DD	4AA	4C#	8A	4e
.	.	.	.	8G	.
I;	2GG;	2DD;	2AA;	2F#;	2d;
=5:|!	=5:|!	=5:|!	=5:|!	=5:|!	=5:|!
I	4GG	4DD	4A	4d	4f#
viiob	4FF#	4EE	4G	8c#	4g
.	.	.	.	8B	.
iii	8BB	4FF#	8C#	8A	4a
Vc/II	8EE	.	8D#	16B	.
.	.	.	.	16c	.
iib	4AA	8GG	4E	4B	4g
.	.	8AA	.	.	.
=6	=6	=6	=6	=6	=6
vi	4EE	8BB	4D	4B	4f#
.	.	8AA	.	.	.
ii	4AA	4GG	4G	4B	4e
V/VI;	2BB;	2FF#;	2C#;	2A#;	2f#;
!!linebreak: 2
=7	=7	=7	=7	=7	=7
I	4GG	4FF#	8D	4A	4a
.	.	.	8E	.	.
I	4GG	4DD	4F#	4d	4a
IV	4CC	4GG	8G	4d	4b
.	.	.	8F#	.	.
V	4DD	4AA	4E	4c#	4a
=8	=8	=8	=8	=8	=8
IVb	4CC	8BB	8D	4B	4g
.	.	8C#	8E	.	.
I	4GG	4D	8F#	8A	4f#
.	.	.	8G#	8B	.
V;	2DD;	2AA;	2A;	2c#;	2e;
=9	=9	=9	=9	=9	=9
I	4GG	4D	8A	4d	8f#
.	.	.	8G	.	8g
I	4GG	4DD	4F#	4d	4a
ii7	4AA	4EE	4E	8d	4g
.	.	.	.	8c#	.
Ib	4GG	4FF#	4AA	8d	8f#
.	.	.	.	8c#	8e
=10	=10	=10	=10	=10	=10
IV	4CC	8GG	4BB	8B	4d
.	.	8FF#	.	8A	.
viiob	4FF#	4EE	4C#	4G	4e
I	4GG	8DD	4D	8F#	2f#
.	.	8EE	.	8G#	.
V/VI	4BB	4FF#	4C#	4A#	.
=11	=11	=11	=11	=11	=11
vi;	2EE;	2BBB;	2BB;	2B;	2d;
vi	4EE	4BB	4D	4B	8f#
.	.	.	.	.	8g
viio7/II	4GG#	4FF#	4D#	4c	4a
=12	=12	=12	=12	=12	=12
iib	4AA	4GG	4E	8B	4g
.	.	.	.	8c#y	.
viiD7/V	4CC#	4GG#	4BB	4d	4f#
V	4DD	8AA	4C#	8c#	4e
.	.	8GG	.	8B	.
Ib	4GG	8FF#	4D	4A	4f#
.	.	8DD	.	.	.
=13	=13	=13	=13	=13	=13
V	2DD	2AA	4D	4.A	2e
.	.	.	4C#	.	.
.	.	.	.	8G	.
I;	2GG;	2DD;	2AA;	2F#;	2d;
==	==	==	==	==	==
*-	*-	*-	*-	*-	*-
!!chor2scor: -l 2 -s 0.6 -o %b.pmx
!!!ONB: In the cantata, the key of the chorale is B-flat
!!!YEC: Copyright 2001 by Craig Stuart Sapp
!!!license: GNU General Public License (http://www.gnu.org/copyleft/gpl.html)
!!!SMA: J.S. Bach Chorale Harmonizations, edited by Ludwig Erk, C.F. Peters
!!!PDT: 1850, 1865
